src/assets/icons/facebook.svg

<svg width="8" height="15" viewBox="0 0 8 15" fill="none" xmlns="http://www.w3.org/2000/svg">
<path d="M2.10547 14.75V8.48828H0V6H2.10547V4.03125C2.10547 2.99219 2.39714 2.1901 2.98047 1.625C3.5638 1.04167 4.33854 0.75 5.30469 0.75C6.08854 0.75 6.72656 0.786458 7.21875 0.859375V3.07422H5.90625C5.41406 3.07422 5.07682 3.18359 4.89453 3.40234C4.7487 3.58464 4.67578 3.8763 4.67578 4.27734V6H7L6.67188 8.48828H4.67578V14.75H2.10547Z" fill="white"/>
</svg>

<svg xmlns="http://www.w3.org/2000/svg" width="8" height="15" fill="none"><path fill="#fff" d="M2.105 14.75V8.488H0V6h2.105V4.031c0-1.039.292-1.84.875-2.406C3.564 1.042 4.34.75 5.305.75c.784 0 1.422.036 1.914.11v2.214H5.906c-.492 0-.83.11-1.011.328-.146.183-.22.474-.22.875V6H7l-.328 2.488H4.676v6.262h-2.57Z"/></svg>
